src/Assets/Icons/General/StayInTheKnowComponent/arrow.svg

<svg width="21" height="21" viewBox="0 0 21 21" fill="none" xmlns="http://www.w3.org/2000/svg">
<path d="M19.7568 0.97991C20.0024 1.15848 20.1028 1.39658 20.0582 1.6942L17.201 18.8371C17.1638 19.0528 17.0448 19.2202 16.8439 19.3393C16.7397 19.3988 16.6244 19.4286 16.4979 19.4286C16.4161 19.4286 16.3268 19.41 16.2301 19.3728L10.3484 16.9732L7.02246 20.6228C6.88853 20.779 6.71368 20.8571 6.49791 20.8571C6.39374 20.8571 6.30818 20.8423 6.24121 20.8125C6.09984 20.7604 5.98824 20.6711 5.90639 20.5446C5.82454 20.4256 5.78362 20.2917 5.78362 20.1429V15.0982L0.515765 12.9442C0.240467 12.84 0.0916574 12.6354 0.0693359 12.3304C0.0470145 12.0402 0.166062 11.8207 0.426479 11.6719L18.9979 0.957588C19.2583 0.801338 19.5113 0.808779 19.7568 0.97991ZM15.9399 17.7098L18.4064 2.9442L2.40193 12.1741L6.15193 13.7031L15.7836 6.57143L10.4488 15.4665L15.9399 17.7098Z" fill="white"/>
</svg>

<svg xmlns="http://www.w3.org/2000/svg" width="21" height="21" fill="none"><path fill="#fff" d="M19.757.98a.7.7 0 0 1 .301.714l-2.857 17.143a.7.7 0 0 1-.357.502.69.69 0 0 1-.614.034l-5.882-2.4-3.326 3.65a.66.66 0 0 1-.524.234.6.6 0 0 1-.257-.044.66.66 0 0 1-.335-.268.7.7 0 0 1-.122-.402v-5.045L.516 12.944q-.413-.156-.447-.614-.033-.435.357-.658L18.998.958q.39-.236.759.022M15.94 17.71l2.466-14.766-16.004 9.23 3.75 1.53 9.632-7.133-5.335 8.896z"/></svg>
